svg/u1f4cc.svg

<svg viewBox="0 0 128 128" xmlns="http://www.w3.org/2000/svg">
  <g>
    <g>
      <path d="M44.27,77.03c0.62-0.64,1.26-1.26,1.93-1.83c1.97-1.65,7.09-5.48,9.85-3.89 c1.64,0.95,1.4,4.1,0.8,5.41c-1.49,3.24-5.31,5.97-7.64,8.67c-1.84,2.14-4.04,4.05-6.05,6.05c-3.2,3.21-6.27,6.81-9.74,9.74 c-0.01,0-21.31,17.99-26.56,22.43c-0.66,0.56-1.63,0.51-2.24-0.09h0c-0.61-0.61-0.65-1.58-0.1-2.24L26.95,94.7 c4.39-4.39,8.79-8.79,13.18-13.19C41.54,80.1,42.87,78.49,44.27,77.03z" fill="#82AEC0"/>
      <path d="M56.88,76.61c-0.71-0.89-1.48-1.77-2.32-2.62c-0.88-0.88-1.8-1.69-2.73-2.42 c-2.22,0.93-4.47,2.65-5.63,3.63c-0.67,0.56-1.31,1.18-1.93,1.83c-1.4,1.47-2.72,3.07-4.14,4.48c-1.33,1.33-2.67,2.67-4,4.01 c0,0-0.24,2.06,2.11,4.41c2.35,2.35,4.3,2.14,4.3,2.14c0.21-0.21,0.41-0.42,0.62-0.63c2-2,4.21-3.91,6.05-6.05 c2.33-2.7,6.14-5.43,7.64-8.67C56.86,76.69,56.87,76.64,56.88,76.61z" fill="#2F7889"/>
      <path d="M40.81,81.59c-4.79-5.16-9.05-10.75-12.51-16.54c-1.46-2.44-3.36-7.29-3.94-11.96 c-0.67-5.32,3.26-10.16,8.6-10.64c6.54-0.59,16.67-0.37,24.02,5.06l23.65-23.65l23.65,23.64L80.63,71.14 c5.43,7.34,5.65,17.46,5.07,24c-0.49,5.41-5.44,9.32-10.82,8.58c-4.88-0.68-9.97-2.77-12.48-4.31 C54.66,94.67,47.25,88.52,40.81,81.59z" fill="#F44336"/>
      <path d="M52.77,50.86l27.86-27.01c0,0,5.76,7.62,10.14,12.09c4.38,4.46,13.52,11.56,13.52,11.56 L77.32,74.46c0,0-9.94,0.92-17.34-6.48C51.36,59.35,52.77,50.86,52.77,50.86z" fill="#F44336"/>
      <path d="M65.96,56.15c1.2,8.92,4.49,13.92,6.22,15.43c2.79,2.41,6.75,1.26,8.45-0.43l23.65-23.65 c0,0-9.14-7.09-13.52-11.56S80.63,23.85,80.63,23.85L69.99,34.09c-1.87,1.8-3.13,4.15-3.53,6.71 C65.94,44.19,64.95,48.68,65.96,56.15z" fill="#C62828"/>
      <path d="M78.87,5.52L68.38,16.01c-1.96,1.53-2.02,3.47-2.02,3.47c-1.08,6.02,4.8,17.13,14.9,27.24 c10.11,10.11,21.22,15.98,27.24,14.9c0,0,1.6,0.13,3.14-1.69l10.82-10.82L78.87,5.52z" fill="#F44336"/>
      <path d="M122.46,49.11c-4.28,4.86-18.05-1.46-30.09-13.5S74.29,10.1,78.87,5.52 c4.58-4.58,17.93,1.59,30.09,13.5C120.72,30.53,126.84,44.14,122.46,49.11z" fill="#F44336"/>
      <path d="M53.34,51.32c-0.08-3.85-7.76-8.46-12.51-4.53c-4.01,3.32-2.39,10.39-0.34,14.1 c2.27,4.11,5.49,7.92,9.71,9.98c4.23,2.07,10.59,0.93,8.35-3.2C55.58,62.19,53.52,59.59,53.34,51.32z" fill="#FF7555"/>
    </g>
    <path d="M92.44,33.36c19.12,18.79,26.11,15.19,27.49,14.12c0.98-0.75,1.44-2.07,1.56-3.34 c0.32-3.34-1.89-9.3-3.53-12.17c-4.27-7.47-8.36-11.92-20.4-20.98c-5.32-4.01-13.16-6.34-15.81-4.01 C78.63,9.72,78.3,19.46,92.44,33.36z" fill="#FF7555"/>
  </g>
</svg>

<svg viewBox="0 0 128 128" xmlns="http://www.w3.org/2000/svg">
  <defs/>
  <path d="M44.27,77.03 C44.89,76.39 45.53,75.77 46.2,75.2 C48.17,73.55 53.29,69.72 56.05,71.31 C57.69,72.26 57.45,75.41 56.85,76.72 C55.36,79.96 51.54,82.69 49.21,85.39 C47.37,87.53 45.17,89.44 43.16,91.44 C39.96,94.65 36.89,98.25 33.42,101.18 C33.41,101.18 12.11,119.17 6.86,123.61 C6.2,124.17 5.23,124.12 4.62,123.52 L4.62,123.52 C4.01,122.91 3.97,121.94 4.52,121.28 L26.95,94.7 C31.34,90.31 35.74,85.91 40.13,81.51 C41.54,80.1 42.87,78.49 44.27,77.03 Z" fill="#82AEC0"/>
  <path d="M56.88,76.61 C56.17,75.72 55.4,74.84 54.56,73.99 C53.68,73.11 52.76,72.3 51.83,71.57 C49.61,72.5 47.36,74.22 46.2,75.2 C45.53,75.76 44.89,76.38 44.27,77.03 C42.87,78.5 41.55,80.1 40.13,81.51 C38.8,82.84 37.46,84.18 36.13,85.52 C36.13,85.52 35.89,87.58 38.24,89.93 C40.59,92.28 42.54,92.07 42.54,92.07 C42.75,91.86 42.95,91.65 43.16,91.44 C45.16,89.44 47.37,87.53 49.21,85.39 C51.54,82.69 55.35,79.96 56.85,76.72 C56.86,76.69 56.87,76.64 56.88,76.61 Z" fill="#2F7889"/>
  <path d="M40.81,81.59 C36.02,76.43 31.76,70.84 28.3,65.05 C26.84,62.61 24.94,57.76 24.36,53.09 C23.69,47.77 27.62,42.93 32.96,42.45 C39.5,41.86 49.63,42.08 56.98,47.51 L80.63,23.86 L104.28,47.5 L80.63,71.14 C86.06,78.48 86.28,88.6 85.7,95.14 C85.21,100.55 80.26,104.46 74.88,103.72 C70,103.04 64.91,100.95 62.4,99.41 C54.66,94.67 47.25,88.52 40.81,81.59 Z" fill="#F44336"/>
  <path d="M52.77,50.86 L80.63,23.85 C80.63,23.85 86.39,31.47 90.77,35.94 C95.15,40.4 104.29,47.5 104.29,47.5 L77.32,74.46 C77.32,74.46 67.38,75.38 59.98,67.98 C51.36,59.35 52.77,50.86 52.77,50.86 Z" fill="#F44336"/>
  <path d="M65.96,56.15 C67.16,65.07 70.45,70.07 72.18,71.58 C74.97,73.99 78.93,72.84 80.63,71.15 L104.28,47.5 C104.28,47.5 95.14,40.41 90.76,35.94 C86.38,31.47 80.63,23.85 80.63,23.85 L69.99,34.09 C68.12,35.89 66.86,38.24 66.46,40.8 C65.94,44.19 64.95,48.68 65.96,56.15 Z" fill="#C62828"/>
  <path d="M78.87,5.52 L68.38,16.01 C66.42,17.54 66.36,19.48 66.36,19.48 C65.28,25.5 71.16,36.61 81.26,46.72 C91.37,56.83 102.48,62.7 108.5,61.62 C108.5,61.62 110.1,61.75 111.64,59.93 L122.46,49.11 L78.87,5.52 Z" fill="#F44336"/>
  <path d="M122.46,49.11 C118.18,53.97 104.41,47.65 92.37,35.61 C80.33,23.57 74.29,10.1 78.87,5.52 C83.45,0.94 96.8,7.11 108.96,19.02 C120.72,30.53 126.84,44.14 122.46,49.11 Z" fill="#F44336"/>
  <path d="M53.34,51.32 C53.26,47.47 45.58,42.86 40.83,46.79 C36.82,50.11 38.44,57.18 40.49,60.89 C42.76,65 45.98,68.81 50.2,70.87 C54.43,72.94 60.79,71.8 58.55,67.67 C55.58,62.19 53.52,59.59 53.34,51.32 Z" fill="#FF7555"/>
  <path d="M92.44,33.36 C111.56,52.15 118.55,48.55 119.93,47.48 C120.91,46.73 121.37,45.41 121.49,44.14 C121.81,40.8 119.6,34.84 117.96,31.97 C113.69,24.5 109.6,20.05 97.56,10.99 C92.24,6.98 84.4,4.65 81.75,6.98 C78.63,9.72 78.3,19.46 92.44,33.36 Z" fill="#FF7555"/>
</svg>
